svgs/duotone/camera-retro.svg

<svg xmlns="http://www.w3.org/2000/svg" viewBox="0 0 512 512"><!-- Font Awesome Pro 6.0.0-alpha2 by @fontawesome - https://fontawesome.com License - https://fontawesome.com/license (Commercial License) --><defs><style>.fa-secondary{opacity:.4}</style></defs><path d="M464 32H271.107C261.172 32 251.373 34.312 242.486 38.756L192 64H48C21.49 64 0 85.49 0 112V160H512V80C512 53.49 490.51 32 464 32ZM256 224C211.908 224 176 259.908 176 304C176 348.09 211.908 384 256 384S336 348.09 336 304C336 259.908 300.092 224 256 224Z" class="fa-secondary"/><path d="M160 48C160 39.162 152.836 32 144 32H80C71.164 32 64 39.162 64 48V64H160V48ZM0 160V432C0 458.51 21.49 480 48 480H464C490.51 480 512 458.51 512 432V160H0ZM256 416C194.273 416 144 365.727 144 304C144 242.271 194.273 192 256 192S368 242.271 368 304C368 365.727 317.727 416 256 416Z" class="fa-primary"/></svg>

<svg xmlns="http://www.w3.org/2000/svg" viewBox="0 0 512 512"><!--! Font Awesome Pro 6.0.0-alpha3 by @fontawesome - https://fontawesome.com License - https://fontawesome.com/license (Commercial License) --><defs><style>.fa-secondary{opacity:.4}</style></defs><path class="fa-primary" d="M160 48C160 39.16 152.8 32 144 32h-64C71.16 32 64 39.16 64 48V64h96V48zM0 160v272C0 458.5 21.49 480 48 480h416c26.51 0 48-21.49 48-48V160H0zM256 416c-61.73 0-112-50.27-112-112C144 242.3 194.3 192 256 192s112 50.27 112 112C368 365.7 317.7 416 256 416z"/><path class="fa-secondary" d="M464 32h-192.9c-9.936 0-19.74 2.313-28.62 6.757L192 64H48C21.49 64 0 85.49 0 112V160h512V80C512 53.49 490.5 32 464 32zM256 224C211.9 224 176 259.9 176 304c0 44.09 35.91 80 80 80s80-35.91 80-80C336 259.9 300.1 224 256 224z"/></svg>
